src/assets/svg/icons/fa/nuevos/classic/thin/place-of-worship classic thin.svg

<svg xmlns="http://www.w3.org/2000/svg" viewBox="0 0 640 512"><!--! Font Awesome Pro 6.4.0 by @fontawesome - https://fontawesome.com License - https://fontawesome.com/license (Commercial License) Copyright 2023 Fonticons, Inc. --><path d="M314.3 2.3c3.1-3.1 8.2-3.1 11.3 0L409 85.7c4.5 4.5 7 10.6 7 17V206.3l44 25.5c12.4 7.2 20 20.3 20 34.6V496H584c22.1 0 40-17.9 40-40V385.7c0-13.4-6.7-25.9-17.8-33.3l-98.6-65.8c-3.7-2.5-4.7-7.4-2.2-11.1s7.4-4.7 11.1-2.2l98.6 65.8C630.6 349.5 640 367 640 385.7V456c0 30.9-25.1 56-56 56H472.3c-.1 0-.2 0-.3 0H384 368 272 256 208.2c-.1 0-.1 0-.2 0H56c-30.9 0-56-25.1-56-56V385.7c0-18.7 9.4-36.2 24.9-46.6l98.6-65.8c3.7-2.5 8.6-1.5 11.1 2.2s1.5 8.6-2.2 11.1L33.8 352.4C22.7 359.8 16 372.3 16 385.7V456c0 22.1 17.9 40 40 40H160V266.4c0-14.3 7.6-27.5 20-34.6l44-25.5V102.6c0-6.4 2.5-12.5 7-17L314.3 2.3zM464 496V266.4c0-8.6-4.6-16.5-12-20.8l-48-27.8c-2.5-1.4-4-4.1-4-6.9V102.6c0-2.1-.8-4.2-2.3-5.7L320 19.3 242.3 97c-1.5 1.5-2.3 3.5-2.3 5.7V210.9c0 2.9-1.5 5.5-4 6.9l-48 27.8c-7.4 4.3-12 12.2-12 20.8V496h80V384c0-35.3 28.7-64 64-64s64 28.7 64 64V496h47.7c.1 0 .2 0 .3 0h32zM368 384c0-26.5-21.5-48-48-48s-48 21.5-48 48V496h96V384z"/></svg>

<svg xmlns="http://www.w3.org/2000/svg" viewBox="0 0 640 512"><path d="M314.3 2.343C317.5-.781 322.5-.781 325.7 2.343L408.1 85.66C413.5 90.16 416 96.26 416 102.6V206.3L460 231.8C472.4 238.1 480 252.2 480 266.4V495.1H584C606.1 495.1 624 478.1 624 455.1V385.7C624 372.3 617.3 359.8 606.2 352.4L507.6 286.6C503.9 284.2 502.9 279.2 505.3 275.6C507.8 271.9 512.8 270.9 516.4 273.3L615.1 339.1C630.6 349.5 640 366.1 640 385.7V455.1C640 486.9 614.9 511.1 584 511.1H472.3C472.2 511.1 472.1 512 472 512H208.2L208 512H56C25.07 512 0 486.9 0 456V385.7C0 366.1 9.358 349.5 24.94 339.1L123.6 273.3C127.2 270.9 132.2 271.9 134.7 275.6C137.1 279.2 136.1 284.2 132.4 286.7L33.81 352.4C22.68 359.8 16 372.3 16 385.7V456C16 478.1 33.91 496 56 496H160V266.4C160 252.2 167.6 238.1 179.1 231.8L224 206.3V102.6C224 96.26 226.5 90.16 231 85.66L314.3 2.343zM464 266.4C464 257.9 459.4 249.1 452 245.7L403.1 217.9C401.5 216.4 400 213.8 400 210.9V102.6C400 100.5 399.2 98.47 397.7 96.97L320 19.31L242.3 96.97C240.8 98.47 240 100.5 240 102.6V210.9C240 213.8 238.5 216.4 236 217.9L187.1 245.7C180.6 249.1 176 257.9 176 266.4V496H256V384C256 348.7 284.7 320 320 320C355.3 320 384 348.7 384 384V496H431.7C431.8 495.1 431.9 495.1 432 495.1H464V266.4zM320 336C293.5 336 272 357.5 272 384V496H368V384C368 357.5 346.5 336 320 336z"/></svg>
